local/share/icons/dracula-icons-main/symbolic/status/budgie-trash-restore-symbolic.svg

<?xml version="1.0" encoding="UTF-8"?>
<svg xmlns="http://www.w3.org/2000/svg" xmlns:xlink="http://www.w3.org/1999/xlink" width="16" height="16" viewBox="0 0 16 16">
<path fill-rule="nonzero" fill="rgb(87.058824%, 87.058824%, 87.058824%)" fill-opacity="1" d="M 6 0 C 5.445312 0 5 0.445312 5 1 L 5 2 L 0.5 2 C 0.222656 2 0 2.222656 0 2.5 C 0 2.777344 0.222656 3 0.5 3 L 1 3 L 1.546875 14.0625 C 1.605469 15.078125 2.453125 16 3.542969 16 L 11.457031 16 C 12.550781 16 13.394531 15.078125 13.453125 14.0625 L 14 3 L 14.5 3 C 14.777344 3 15 2.777344 15 2.5 C 15 2.222656 14.777344 2 14.5 2 L 10 2 L 10 1 C 10 0.445312 9.554688 0 9 0 Z M 6 1 L 9 1 L 9 2 L 6 2 Z M 7.511719 5 L 11 9 L 9 9 L 9 13 L 6 13 L 6 9 L 4 9 Z M 7.511719 5 "/>
</svg>

<svg width="16" height="16" version="1.1" viewBox="0 0 16 16" xmlns="http://www.w3.org/2000/svg">
 <path d="m6 0c-0.554 0-1 0.446-1 1v1h-4.5c-0.277 0-0.5 0.223-0.5 0.5s0.223 0.5 0.5 0.5h0.49805l0.54688 11.061c0.0612 1.0155 0.90625 1.9395 1.998 1.9395h7.9141c1.0919 0 1.9368-0.92381 1.998-1.9395l0.54688-11.061h0.49805c0.277 0 0.5-0.223 0.5-0.5s-0.223-0.5-0.5-0.5h-4.5v-1c0-0.554-0.446-1-1-1h-3zm0 1h3v1h-3v-1zm1.5117 4 3.4883 4h-2v4h-3v-4h-2l3.5117-4z" color="#dedede" fill="currentColor"/>
</svg>
